X: 1
T: BAMFORD HORNPIPE
O: Kerr's 2nd
R: hornpipe
Z: 2007 John Chambers <jc:trillian.mit.edu>
B: Kerr 2nd p.43 #385 c.1880
M: C|
L: 1/8
K: Bb
(de) |  fbdf edcB | AcF2 F3E  |1,3 DFB2 d2Bd | fede c2   :|2,4 DFBd fecA | B2d2 B2 :|
(AB) |: cFAc eFAc | BDFB dFBd |1,3 fBdf bBdf | efed cBAB :|2,4 fgfe decd | Bbfd B2 :|
